X: 19745
T: Jenny Picking Cockles
R: reel
M: 4/4
K: Dmixolydian
d2 dc AG G2|FGAB cAGA-|Addc AG A/B/c|AGcE EDAc|
dcdc AGAG|FGAB c2 cd|eddc AGEF|GEcE ED D2:|
|:f2 f/f/f efed|^cAAA cAAe|f2 fd ed^cd|eaag edde|
fafd efed|^cAAB =c2 cd|eddc AGEF|GEcE ED D2:|

